www/assets/icons/gps_not_fixed.svg

<svg xmlns="http://www.w3.org/2000/svg" width="24" height="24" viewBox="0 0 24 24" fill='currentColor'><path d="M20.94 11A8.994 8.994 0 0 0 13 3.06V1h-2v2.06A8.994 8.994 0 0 0 3.06 11H1v2h2.06A8.994 8.994 0 0 0 11 20.94V23h2v-2.06A8.994 8.994 0 0 0 20.94 13H23v-2zM12 19c-3.87 0-7-3.13-7-7s3.13-7 7-7 7 3.13 7 7-3.13 7-7 7"/></svg>

<svg width="24" height="24" viewBox="0 0 24 24" xmlns="http://www.w3.org/2000/svg" fill='currentColor'><path d="M20.94 11C20.48 6.83 17.17 3.52 13 3.06V1H11V3.06C6.83 3.52 3.52 6.83 3.06 11H1V13H3.06C3.52 17.17 6.83 20.48 11 20.94V23H13V20.94C17.17 20.48 20.48 17.17 20.94 13H23V11H20.94ZM12 19C8.13 19 5 15.87 5 12C5 8.13 8.13 5 12 5C15.87 5 19 8.13 19 12C19 15.87 15.87 19 12 19Z"/></svg>
